svgs/corgi-blacktan.svg

<svg xmlns="http://www.w3.org/2000/svg" viewBox="0 0 170 170" enable-background="new 0 0 170 170">
  <style type="text/css">.st0{fill:#BA8058;} .st1{fill:#52595F;} .st2{fill:#FBFEFF;} .st3{fill:#2D3339;}</style>
  <path class="st0" d="M10.5 84.2c8.2-19.5 26.1-33.9 47.6-37.6-3.9-6.3-33.6-53.4-49.2-45.8-16.6 8.2-4.9 56.1-4.9 56.1s-1.2 14.6 6.5 27.3zM165.3 31.5c-15.4-11.2-56.4 20.2-62.8 25.2 17 11.6 28 31.3 27.3 53.3 0 1.1-.1 2.2-.2 3.3 12.8-8.1 18.9-27.9 18.9-27.9s33.5-41.8 16.8-53.9z"/>
  <path class="st1" d="M130.8 109.1c-1 34.6-30 61.8-64.9 60.9s-62.4-29.8-61.4-64.3 30-61.8 64.9-60.9 62.4 29.7 61.4 64.3z"/>
  <path class="st2" d="M78.8 94.5l2.6-31.4c.6-2.3-.8-4.6-3.1-5.1-2.3-.6-4.6.8-5.2 3.1l-10.5 30.3c-18.6.7-33.6 15.9-33.6 34.5-.1 19.2 15.6 34.8 34.9 34.9s35.2-15.4 35.2-34.6c.1-14-8.3-26.1-20.3-31.7z"/>
  <path class="st3" d="M66.5 111.6c-7.1-1.1-14.3 1.2-15.5 8.3-1.1 7 4.6 13.8 11.8 15s14.7-3.5 15.8-10.6c1.1-7-5-11.5-12.1-12.7zM39.6 76c-4.1-.8-8 1.9-8.8 5.9-.8 4 1.9 7.9 5.9 8.7 4.1.8 8-1.9 8.8-5.9.9-4-1.8-7.9-5.9-8.7zM104.4 88.4c-4.1-.8-8 1.9-8.8 5.9-.8 4 1.9 7.9 5.9 8.7 4.1.8 8-1.9 8.8-5.9.9-4.1-1.8-8-5.9-8.7z"/>
  <path class="st0" d="M106.9 74.7c-5.4-.8-10.1.4-10.5 2.8-.4 2.4 3.7 5 9.1 5.8 5.4.8 10.1-.4 10.5-2.8.4-2.4-3.7-5-9.1-5.8zM42.1 62.3c-5.4-.8-10.1.4-10.5 2.8-.4 2.4 3.7 5 9.1 5.8 5.4.8 10.1-.4 10.5-2.8.4-2.3-3.7-4.9-9.1-5.8z"/>
</svg>

<?xml version="1.0" encoding="utf-8"?>
<!-- Generator: Adobe Illustrator 19.1.0, SVG Export Plug-In . SVG Version: 6.00 Build 0)  -->
<svg version="1.1" id="Layer_1" xmlns="http://www.w3.org/2000/svg" xmlns:xlink="http://www.w3.org/1999/xlink" x="0px" y="0px"
	 viewBox="0 0 170 170" style="enable-background:new 0 0 170 170;" xml:space="preserve">
<style type="text/css">
	.st0{fill:#BA8058;}
	.st1{fill:#52595F;}
	.st2{fill:#FBFEFF;}
	.st3{fill:#2D3339;}
</style>
<g>
	<path class="st0" d="M10.5,84.2c8.2-19.5,26.1-33.9,47.6-37.6C54.2,40.3,24.5-6.8,8.9,0.8C-7.7,9,4,56.9,4,56.9S2.8,71.5,10.5,84.2
		z"/>
	<path class="st0" d="M165.3,31.5c-15.4-11.2-56.4,20.2-62.8,25.2c17,11.6,28,31.3,27.3,53.3c0,1.1-0.1,2.2-0.2,3.3
		c12.8-8.1,18.9-27.9,18.9-27.9S182,43.6,165.3,31.5z"/>
	<path class="st1" d="M130.8,109.1c-1,34.6-30,61.8-64.9,60.9S3.5,140.2,4.5,105.7s30-61.8,64.9-60.9S131.8,74.5,130.8,109.1z"/>
	<path class="st2" d="M78.8,94.5l2.6-31.4c0.6-2.3-0.8-4.6-3.1-5.1c-2.3-0.6-4.6,0.8-5.2,3.1L62.6,91.4C44,92.1,29,107.3,29,125.9
		c-0.1,19.2,15.6,34.8,34.9,34.9s35.2-15.4,35.2-34.6C99.2,112.2,90.8,100.1,78.8,94.5z"/>
	<g>
		<path class="st3" d="M66.5,111.6c-7.1-1.1-14.3,1.2-15.5,8.3c-1.1,7,4.6,13.8,11.8,15s14.7-3.5,15.8-10.6
			C79.7,117.3,73.6,112.8,66.5,111.6z"/>
		<path class="st3" d="M39.6,76c-4.1-0.8-8,1.9-8.8,5.9c-0.8,4,1.9,7.9,5.9,8.7c4.1,0.8,8-1.9,8.8-5.9C46.4,80.7,43.7,76.8,39.6,76z
			"/>
		<path class="st3" d="M104.4,88.4c-4.1-0.8-8,1.9-8.8,5.9c-0.8,4,1.9,7.9,5.9,8.7c4.1,0.8,8-1.9,8.8-5.9
			C111.2,93,108.5,89.1,104.4,88.4z"/>
	</g>
	<g>
		<path class="st0" d="M106.9,74.7c-5.4-0.8-10.1,0.4-10.5,2.8c-0.4,2.4,3.7,5,9.1,5.8c5.4,0.8,10.1-0.4,10.5-2.8
			C116.4,78.1,112.3,75.5,106.9,74.7z"/>
		<path class="st0" d="M42.1,62.3c-5.4-0.8-10.1,0.4-10.5,2.8c-0.4,2.4,3.7,5,9.1,5.8c5.4,0.8,10.1-0.4,10.5-2.8
			C51.6,65.8,47.5,63.2,42.1,62.3z"/>
	</g>
</g>
</svg>
